pix_plugins/mod/book/nav_next_dis.svg

<!DOCTYPE svg PUBLIC "-//W3C//DTD SVG 1.1//EN" "http://www.w3.org/Graphics/SVG/1.1/DTD/svg11.dtd" [
	<!ENTITY ns_flows "http://ns.adobe.com/Flows/1.0/">
]><svg xmlns="http://www.w3.org/2000/svg" width="16" height="16" viewBox="0 -0.2 16 16" preserveAspectRatio="xMinYMid meet" overflow="visible" enable-background="new 0 -0.2 16 16"><path d="M15 6.9l-13.1-6.7c-1-.5-1.9 0-1.9 1.1v13c0 1.1.9 1.6 1.9 1.1l13.1-6.7c.9-.5 1-1.3 0-1.8zm-4.4 1.8l-6.7 3.4c-1 .5-1.9 0-1.9-1.1v-6.4c0-1.1.9-1.6 1.9-1.1l6.6 3.4c1 .5 1.1 1.3.1 1.8z" fill="#888"/></svg>

<?xml version="1.0" encoding="utf-8"?>
<!-- Generator: Adobe Illustrator 15.1.0, SVG Export Plug-In  -->
<!DOCTYPE svg PUBLIC "-//W3C//DTD SVG 1.1//EN" "http://www.w3.org/Graphics/SVG/1.1/DTD/svg11.dtd" [
	<!ENTITY ns_flows "http://ns.adobe.com/Flows/1.0/">
]>
<svg version="1.1"
	 xmlns="http://www.w3.org/2000/svg" xmlns:xlink="http://www.w3.org/1999/xlink" xmlns:a="http://ns.adobe.com/AdobeSVGViewerExtensions/3.0/"
	 x="0px" y="0px" width="16px" height="16px" viewBox="0 -0.2 16 16" style="overflow:visible;enable-background:new 0 -0.2 16 16;"
	 xml:space="preserve" preserveAspectRatio="xMinYMid meet">
<defs>
</defs>
<path style="fill:#29a1c4;" d="M15,6.9L1.9,0.2C0.9-0.3,0,0.2,0,1.3v13c0,1.1,0.9,1.6,1.9,1.1L15,8.7C15.9,8.2,16,7.4,15,6.9z
	 M10.6,8.7l-6.7,3.4c-1,0.5-1.9,0-1.9-1.1V4.6C2,3.5,2.9,3,3.9,3.5l6.6,3.4C11.5,7.4,11.6,8.2,10.6,8.7z"/>
</svg>
